assets/Pancakes/Flat/pancakes_flat.svg

<svg width="32" height="32" viewBox="0 0 32 32" fill="none" xmlns="http://www.w3.org/2000/svg">
<path d="M21.3569 12.0662H10.6531C5.87138 12.0662 2 15.9475 2 20.7292C2 25.511 5.87138 29.3823 10.6531 29.3823H21.3469C26.1286 29.3823 30 25.511 30 20.7292C30.01 15.9475 26.1386 12.0662 21.3569 12.0662Z" fill="#D3D3D3"/>
<path d="M10.5931 8.51489H21.4169L27.9893 10.4156V12.9765C27.9893 14.0543 27.7302 15.0722 27.2705 15.9708L27.9893 16.1776V18.7385C27.9893 22.3698 25.0482 25.3209 21.4069 25.3209H10.5931C6.96179 25.3209 4.01074 22.3798 4.01074 18.7385V16.1776L4.72928 15.9712C4.26996 15.0734 4.01074 14.0557 4.01074 12.9765V10.4156L10.5931 8.51489Z" fill="#F9C23C"/>
<path d="M10.5924 3.42249H21.4162C25.0475 3.42249 27.9986 6.37354 27.9886 10.0048C27.9886 13.6361 25.0475 16.5872 21.4062 16.5872H10.5924C6.96106 16.5872 4.01001 13.6461 4.01001 10.0048C4.01001 6.37354 6.95106 3.42249 10.5924 3.42249Z" fill="#D3883E"/>
<path d="M10.5931 19.5587C7.44139 19.5587 4.80211 17.3433 4.15994 14.3773C4.0622 14.8286 4.01074 15.297 4.01074 15.7774C4.01074 19.4187 6.96179 22.3597 10.5931 22.3597H21.4069C25.0482 22.3597 27.9893 19.4087 27.9893 15.7774C27.9906 15.2936 27.9397 14.8222 27.8418 14.3684C27.2037 17.3327 24.5694 19.5587 21.4069 19.5587H10.5931Z" fill="#D3883E"/>
<path d="M19.4363 6.2041H12.5639C10.5231 6.2041 8.87256 7.85469 8.87256 9.89542C8.87256 11.566 9.98295 12.9865 11.5135 13.4367C11.9737 13.5767 12.2838 14.0069 12.2838 14.4871V20.2991C12.2838 21.0094 12.834 21.6096 13.5442 21.6296C14.2645 21.6396 14.8547 21.0594 14.8547 20.3491V14.6771C14.8547 14.0769 15.3349 13.5967 15.9351 13.5967C16.5353 13.5967 17.0155 14.0769 17.0155 14.6771V16.3277C17.0155 17.038 17.5657 17.6382 18.2759 17.6582C18.9962 17.6682 19.5864 17.088 19.5864 16.3777V14.5371C19.5864 14.0469 19.9065 13.6067 20.3867 13.4767C21.9772 13.0665 23.1476 11.616 23.1476 9.90542C23.1376 7.85469 21.4771 6.2041 19.4363 6.2041Z" fill="#6D4534"/>
<path d="M17.4056 5.11277L16.9555 4.84267C16.3653 4.49255 15.635 4.49255 15.0548 4.84267L14.6046 5.11277H11.2935V7.21352C11.2935 7.62366 11.4935 8.03381 11.8937 8.26389L15.0548 10.1346C15.645 10.4847 16.3753 10.4847 16.9555 10.1346L20.1166 8.26389C20.5167 8.02381 20.7168 7.61366 20.7168 7.21352V5.11277H17.4056Z" fill="#F9C23C"/>
<path d="M15.0548 2.26259L11.8937 4.13326C11.0934 4.60343 11.0934 5.76384 11.8937 6.24401L15.0548 8.11468C15.645 8.4648 16.3753 8.4648 16.9555 8.11468L20.1166 6.24401C20.9169 5.77384 20.9169 4.61343 20.1166 4.13326L16.9555 2.26259C16.3653 1.91247 15.645 1.91247 15.0548 2.26259Z" fill="#FCD53F"/>
</svg>

<svg xmlns="http://www.w3.org/2000/svg" width="32" height="32" fill="none"><path fill="#D3D3D3" d="M21.357 12.066H10.653C5.871 12.066 2 15.947 2 20.73a8.65 8.65 0 0 0 8.653 8.653h10.694A8.65 8.65 0 0 0 30 20.73a8.643 8.643 0 0 0-8.643-8.663Z"/><path fill="#F9C23C" d="M10.593 8.515h10.824l6.572 1.9v2.562c0 1.077-.259 2.095-.719 2.994l.72.207v2.56a6.581 6.581 0 0 1-6.583 6.583H10.593a6.581 6.581 0 0 1-6.582-6.583v-2.56l.718-.207a6.556 6.556 0 0 1-.718-2.995v-2.56l6.582-1.901Z"/><path fill="#D3883E" d="M10.592 3.422h10.824c3.631 0 6.583 2.952 6.573 6.583a6.581 6.581 0 0 1-6.583 6.582H10.592a6.581 6.581 0 0 1-6.582-6.582 6.581 6.581 0 0 1 6.582-6.583Z"/><path fill="#D3883E" d="M10.593 19.559a6.584 6.584 0 0 1-6.433-5.182 6.581 6.581 0 0 0 6.433 7.982h10.814a6.581 6.581 0 0 0 6.582-6.582 6.591 6.591 0 0 0-.147-1.409 6.583 6.583 0 0 1-6.435 5.19H10.593Z"/><path fill="#6D4534" d="M19.436 6.204h-6.872a3.689 3.689 0 0 0-3.691 3.691c0 1.671 1.11 3.091 2.64 3.542.46.14.77.57.77 1.05V20.3c0 .71.551 1.31 1.261 1.33.72.01 1.31-.57 1.31-1.28v-5.672c0-.6.48-1.08 1.081-1.08.6 0 1.08.48 1.08 1.08v1.65c0 .711.55 1.311 1.26 1.331.721.01 1.311-.57 1.311-1.28v-1.84c0-.491.32-.931.8-1.061a3.692 3.692 0 0 0 2.762-3.572 3.714 3.714 0 0 0-3.712-3.7Z"/><path fill="#F9C23C" d="m17.406 5.113-.45-.27c-.59-.35-1.321-.35-1.901 0l-.45.27h-3.312v2.1c0 .41.2.82.6 1.05l3.162 1.872c.59.35 1.32.35 1.9 0l3.162-1.871c.4-.24.6-.65.6-1.05V5.113h-3.311Z"/><path fill="#FCD53F" d="m15.055 2.263-3.161 1.87c-.8.47-.8 1.63 0 2.111l3.16 1.87c.591.35 1.321.35 1.902 0l3.16-1.87c.8-.47.8-1.63 0-2.11l-3.16-1.871c-.59-.35-1.311-.35-1.901 0Z"/></svg>
